X: 5
T: Missa Malheur me bat / Kyrie
N: Derived from Agr1004a-Missa_Malheur_me_bat-Kyrie.krn
C: Alexander Agricola
%%abc-version 2.0
%%abcx-abcm2ps-target-version 5.9.1 (29 Sep 2008)
%%abc-creator hum2abc beta
%%abcx-conversion-date 2019/02/16 20:17:15
%%abc-edited-by Jesse Rodin
%%abc-edited-by Jesse Rodin; Megan K. Eagen 2013/04/23
%%abcx-initial-encoding-date 2013/04/23/
%%humdrum-veritas 182076006
%%humdrum-veritas-data 3121685682
%%linebreak <none>
%%barnumbers 0
L: 1/4
M: 3/1
Q: 1/2=120
%%staves [1 2 3 4]
V: 1 clef=treble
V: 2 clef=treble-8
V: 3 clef=treble-8
V: 4 clef=bass
K: C
[V:1] E12 | 
[V:2] E4E2B4B2 | 
[V:3] E12- | 
[V:4] E,8E,4 | 
[V:1] G4A2B2c4 | 
[V:2] c3/B/e4d3c/B/c2 | 
[V:3] E12 | 
[V:4] C,6B,,2A,,4 | 
[V:1] B2G4FED2G2- | 
[V:2] d8d4 | 
[V:3] B12 | 
[V:4] G,,8G,,4 | 
[V:1] G2G3EA3GG2- | 
[V:2] e4z4z4 | 
[V:3] c12 | 
[V:4] C,3D,E,2F,3E,/D,/E,C, | 
[V:1] GFE2D2G3F/E/DG | 
[V:2] E3FG3F/E/D3E | 
[V:3] B8G4 | 
[V:4] G,4G,,4G,,4 | 
[V:1] C2zc3/B/A2G/F/E2z2 | 
[V:2] F3E/D/C2F2zCDE- | 
[V:3] A8G4 | 
[V:4] F,,8C,2B,,C,- | 
[V:1] z4C4D4 | 
[V:2] E/F/G3/F/E/D/C3GAc2B | 
[V:3] E8F4 | 
[V:4] C,A,,G,,C,2G,2F,/E,/D,3/C,/D,2 | 
[V:1] E3/F/GAB2c3B/A/B2 | 
[V:2] c2e2d2ce2fd2 | 
[V:3] E3FG2A3G/F/G2 | 
[V:4] C,4z4z4 | 
[V:1] c4z4G3F | 
[V:2] c4zF3/G/A/B/cG2c- | 
[V:3] C2zcBA2G/F/E3F | 
[V:4] z2C,2D,2D,2C,4 | 
[V:1] D2zC2B,/A,/G,2A,2B,2 | 
[V:2] cBc4c3B/A/d2 | 
[V:3] G2A3GE2F2G2 | 
[V:4] z2F,,4C,3/B,,/A,,2G,,2 | 
[V:1] C2E2F2zGAc3/B/A- | 
[V:2] e2cc2Bc3de2- | 
[V:3] C4D2E2A,2A,3/B,/ | 
[V:4] zG,2F,/E,/D,2C,4zC- | 
[V:1] AG2FG3F/E/ F/E/D/C/D2 | 
[V:2] e2d2Be3/d/c2B/A/B2 | 
[V:3] C2D2E2G2F4 | 
[V:4] CB,A,2G,3/F,/E,D,/C,/D,2D,2 | 
[V:1] E12 ||  
[V:2] c12 ||  
[V:3] E12 ||  
[V:4] C,12 ||  
[V:1]  [K:C] [K:clef=treble][M:2/1]z8 | 
[V:2]  [K:C] [K:clef=treble-8][M:2/1]E6DC | 
[V:3]  [K:C] [K:clef=treble-8][M:2/1]z8 | 
[V:4]  [K:C] [K:clef=bass][M:2/1]z8 | 
[V:1] z8 | 
[V:2] D4C4 | 
[V:3] z8 | 
[V:4] z8 | 
[V:1] E6DC | 
[V:2] G2A2G2c2- | 
[V:3] z8 | 
[V:4] z8 | 
[V:1] D4C4 | 
[V:2] c2B2c4- | 
[V:3] z8 | 
[V:4] z8 | 
[V:1] G2A2G2c2- | 
[V:2] c2BABcA2 | 
[V:3] z8 | 
[V:4] z8 | 
[V:1] c2B2c4- | 
[V:2] G4z2A2- | 
[V:3] z8 | 
[V:4] z8 | 
[V:1] c2BAG2A2- | 
[V:2] A2GFEFD2 | 
[V:3] z8 | 
[V:4] z8 | 
[V:1] AGFED2G2- | 
[V:2] C2D4E2 | 
[V:3] z8 | 
[V:4] z8 | 
[V:1] GFEDE2D2- | 
[V:2] C2c4BA | 
[V:3] z8 | 
[V:4] z8 | 
[V:1] DCB,A,B,2A,2 | 
[V:2] B2G4c2- | 
[V:3] z8 | 
[V:4] z8 | 
[V:1] A6GF | 
[V:2] cBAGc2d2 | 
[V:3] z8 | 
[V:4] z8 | 
[V:1] G2A4^G2 | 
[V:2] B2A2B4 | 
[V:3] z8 | 
[V:4] z8 | 
[V:1] A8 | 
[V:2] A8 | 
[V:3] e4c4 | 
[V:4] z2A,4F,2- | 
[V:1] z8 | 
[V:2] z8 | 
[V:3] d2e4A2 | 
[V:4] F,2G,2A,4 | 
[V:1] z8 | 
[V:2] z8 | 
[V:3] B4c4- | 
[V:4] D,2E,4F,2- | 
[V:1] z8 | 
[V:2] z8 | 
[V:3] c8- | 
[V:4] F,2E,2C,3D, | 
[V:1] z8 | 
[V:2] z8 | 
[V:3] c8- | 
[V:4] E,2A,,4A,2- | 
[V:1] z8 | 
[V:2] z8 | 
[V:3] c8- | 
[V:4] A,2G,F,G,F,E,D, | 
[V:1] z8 | 
[V:2] z8 | 
[V:3] c4c4- | 
[V:4] C,3D,E,2F,2 | 
[V:1] z8 | 
[V:2] z8 | 
[V:3] c4c4- | 
[V:4] E,2A,3G,E,2 | 
[V:1] z8 | 
[V:2] z2A4^G2 | 
[V:3] c2BAB4 | 
[V:4] F,4E,4 | 
[V:1] z8 | 
[V:2] A6GA | 
[V:3] A2c4BA | 
[V:4] A,,8 | 
[V:1] z8 | 
[V:2] B4G3A | 
[V:3] G3AB4 | 
[V:4] E,6F,2 | 
[V:1] z8 | 
[V:2] B4B2c2- | 
[V:3] E4e4- | 
[V:4] G,4C,4 | 
[V:1] z8 | 
[V:2] cBAGA4 | 
[V:3] e2dcdcBA | 
[V:4] F,8 | 
[V:1] G6FE | 
[V:2] B4G4 | 
[V:3] G3AB2c2 | 
[V:4] E,8 | 
[V:1] D2G3FED | 
[V:2] z8 | 
[V:3] B2e3dB2 | 
[V:4] z8 | 
[V:1] E3FGAG2- | 
[V:2] z4z2c2- | 
[V:3] c4B2e2- | 
[V:4] z8 | 
[V:1] G2A2G2c2- | 
[V:2] c2F2G2A2 | 
[V:3] edf2e2c2 | 
[V:4] z8 | 
[V:1] c2B2A2GF | 
[V:2] G3DF2ED | 
[V:3] d4z2c2- | 
[V:4] z8 | 
[V:1] E2D2G3F | 
[V:2] C2G2C2D2- | 
[V:3] c2B2c2A2- | 
[V:4] z8 | 
[V:1] FEG2C4 | 
[V:2] D2E2F2A2 | 
[V:3] A2G2A2c2 | 
[V:4] z8 | 
[V:1] D4C4- | 
[V:2] G4z4 | 
[V:3] B4A4- | 
[V:4] z4F,,4- | 
[V:1] C4z4 | 
[V:2] z8 | 
[V:3] A8- | 
[V:4] F,,2C,2D,2F,2- | 
[V:1] z8 | 
[V:2] z8 | 
[V:3] A4A4 | 
[V:4] F,2E,D,C,2D,2 | 
[V:1] z8 | 
[V:2] z8 | 
[V:3] A3Bc3d | 
[V:4] C,2D,2A,,4- | 
[V:1] z8 | 
[V:2] C6G2 | 
[V:3] e8- | 
[V:4] A,,4z4 | 
[V:1] z8 | 
[V:2] A2c4BA | 
[V:3] e8 | 
[V:4] z8 | 
[V:1] z8 | 
[V:2] G2A2G2A2 | 
[V:3] e8- | 
[V:4] z8 | 
[V:1] z8 | 
[V:2] E2A3Gc2- | 
[V:3] e8 | 
[V:4] z2C3B,A,G, | 
[V:1] z8 | 
[V:2] c2B2G2A2- | 
[V:3] d4c4- | 
[V:4] F,2G,2E,2F,2- | 
[V:1] z8 | 
[V:2] A2GFE4- | 
[V:3] c8- | 
[V:4] F,2E,D,C,4- | 
[V:1] C6G2 | 
[V:2] E4z4 | 
[V:3] c4c4- | 
[V:4] C,4z4 | 
[V:1] A2c4BA | 
[V:2] z8 | 
[V:3] c8- | 
[V:4] z8 | 
[V:1] G2A2G2A2 | 
[V:2] z8 | 
[V:3] c4c3B | 
[V:4] z8 | 
[V:1] E4F4 | 
[V:2] z8 | 
[V:3] cde4d2 | 
[V:4] z8 | 
[V:1] E8- | 
[V:2] c6BA | 
[V:3] e8 | 
[V:4] C,8 | 
[V:1] E8 | 
[V:2] G4z2G2- | 
[V:3] e6dc | 
[V:4] C,6B,,A,, | 
[V:1] z4E4 | 
[V:2] GFEDC4 | 
[V:3] B4c4 | 
[V:4] G,,4A,,4 | 
[V:1] G4G3F | 
[V:2] z2G3FED | 
[V:3] B4G4- | 
[V:4] G,,3A,,B,,2C,2- | 
[V:1] E2DCD4 | 
[V:2] C4z2G2- | 
[V:3] G2A2B4 | 
[V:4] C,2B,,A,,G,,4 | 
[V:1] C4G3A | 
[V:2] GFEDE2C2 | 
[V:3] E8- | 
[V:4] A,,3B,,C,3B,,/A,,/ | 
[V:1] B2c4BA | 
[V:2] G2E2A2GF | 
[V:3] E8 | 
[V:4] G,,2A,,4B,,2 | 
[V:1] G6A2 | 
[V:2] E2C2G4- | 
[V:3] e8 | 
[V:4] C,8 | 
[V:1] B4c4- | 
[V:2] G4C4 | 
[V:3] d4c4 | 
[V:4] G,,4A,,4 | 
[V:1] c2BAB4 | 
[V:2] G8 | 
[V:3] d8 | 
[V:4] G,,8 | 
[V:1] c4CDEF | 
[V:2] E4A4 | 
[V:3] c6BA | 
[V:4] A,,8 | 
[V:1] G2A2B2c2- | 
[V:2] G2FED2C2- | 
[V:3] B2c2d2e2- | 
[V:4] z8 | 
[V:1] c2BAG4 | 
[V:2] CDEFG2E2 | 
[V:3] e2dcB4 | 
[V:4] A,,4E,4 | 
[V:1] A4c4- | 
[V:2] E8 | 
[V:3] A8 | 
[V:4] A,,8- | 
[V:1] c2BAG4 | 
[V:2] e4z2e2- | 
[V:3] c8- | 
[V:4] A,,4E,4 | 
[V:1] A6GF | 
[V:2] edcBA4 | 
[V:3] c4d4 | 
[V:4] F,8 | 
[V:1] G8- | 
[V:2] B8 | 
[V:3] e8- | 
[V:4] E,8- | 
[V:1] G8- | 
[V:2] B6AB | 
[V:3] e8- | 
[V:4] E,4C,4 | 
[V:1] G8 ||  
[V:2] c8 ||  
[V:3] e8 ||  
[V:4] C,8 ||  
[V:1]  [K:C] [K:clef=treble][M:3/1]G12- | 
[V:2]  [K:C] [K:clef=treble-8][M:3/1]e8e4 | 
[V:3]  [K:C] [K:clef=treble-8][M:3/1]B12 | 
[V:4]  [K:C] [K:clef=bass][M:3/1]E,12 | 
[V:1] G8A4 | 
[V:2] E4E3DE2F2 | 
[V:3] c12 | 
[V:4] C,4-C,3B,,A,,4 | 
[V:1] B4c8 | 
[V:2] G4C2F4ED | 
[V:3] B4A8 | 
[V:4] G,,4F,,4F,,4 | 
[V:1] c3BG2c4B2 | 
[V:2] E2e4c2d4 | 
[V:3] G12 | 
[V:4] C,4C,3B,,/A,,/G,,4 | 
[V:1] c2G3FE2D4 | 
[V:2] c3B/A/G2C2G4 | 
[V:3] G3AB2c4B2 | 
[V:4] C,4z4G,,4 | 
[V:1] C4z4z4 | 
[V:2] E3F2E/D/E2D2G2- | 
[V:3] c8d4 | 
[V:4] A,,8B,,4 | 
[V:1] G4A3Bc3B/A/ | 
[V:2] GCC4A3Bc2- | 
[V:3] e4f8 | 
[V:4] C,4F,,8 | 
[V:1] G2c2B2A3^G/^F/G2 | 
[V:2] cB/A/GEG2A2E4 | 
[V:3] e4d2c2B4 | 
[V:4] C,4z4z4 | 
[V:1] A4z4z4 | 
[V:2] A2c3B/A/G2A4 | 
[V:3] E8F4 | 
[V:4] A,,3B,,C,D,E,2E,2D,2 | 
[V:1] E3FGAB4A2 | 
[V:2] G8A4 | 
[V:3] E4B4c4 | 
[V:4] E,C,2B,,/A,,/G,,2G,3E,F,2 | 
[V:1] B6G2G4 | 
[V:2] G6C2C4 | 
[V:3] B4z4z4 | 
[V:4] G,6E,2E,4 | 
[V:1] A2G2c2BA2GF2 | 
[V:2] F2E2FCEFG2A2 | 
[V:3] zc2BA2GFE2D2 | 
[V:4] z12 | 
[V:1] E2DEFE/F/G4F2 | 
[V:2] zc2BA2G2A3G/F/ | 
[V:3] C2z4z4z2 | 
[V:4] z2G,2F,2E,2D,4 | 
[V:1] G4C4z4 | 
[V:2] E4E4z2F2 | 
[V:3] z4z2c2d4 | 
[V:4] C,3B,,A,,G,,A,,2G,,2D,2 | 
[V:1] z2C2D4E4 | 
[V:2] E2A3G/F/G2C2c2 | 
[V:3] e4f3e/d/c4 | 
[V:4] A,,2C,2_B,,4A,,4 | 
[V:1] F2EDC8- | 
[V:2] Ac3/B/A/G/FAG2A2F2 | 
[V:3] z2F4E2F2A2 | 
[V:4] F,,2F,,3/G,,/A,,F,,C,2F,,4 | 
[V:1] C4z2E3D2C/B,/ | 
[V:2] EA2G/F/ECG2CB,2C | 
[V:3] GF2E/D/C4G4 | 
[V:4] z12 | 
[V:1] A,2G,4G3F2E/D/ | 
[V:2] D2ECG4z4 | 
[V:3] F2G2B4A4 | 
[V:4] z4G,,4D,3C, | 
[V:1] C2D4E3DB,2 | 
[V:2] z12 | 
[V:3] A2B3Ac3BB2- | 
[V:4] A,,2G,,4C,2A,,2G,,G,- | 
[V:1] C4B,4z2B2- | 
[V:2] z4d3c/B/c2d2 | 
[V:3] B2A2B4A2G2- | 
[V:4] G,^F,/E,/F,2G,4z4 | 
[V:1] B2A2G2c4B2 | 
[V:2] zG2F/E/GEA2G4 | 
[V:3] G2c2B2c2d4 | 
[V:4] z12 | 
[V:1] c3BG2A2F2E2- | 
[V:2] C3DE2F3E/D/Cc- | 
[V:3] c4B2A3G/F/GA- | 
[V:4] z12 | 
[V:1] E2C2D2F4E2- | 
[V:2] cB/A/G2F4F2G2 | 
[V:3] AG/F/E2D4A2G2 | 
[V:4] z4_B,,3A,,/G,,/F,,2C,2 | 
[V:1] E2D2E8- | 
[V:2] A2D2G2Ac2AB2 | 
[V:3] F4E8- | 
[V:4] A,,2B,,2C,2A,,4G,,2 | 
[V:1] E12 |]  
[V:2] c3BB8 |]  
[V:3] E12 |]  
[V:4] A,,4E,,8 & x4E,8 |]  



